X: 6253
T: Carolan's Concerto
R: reel
M: 4/4
K: Dmajor
A/B/c|:d2 .d.d d2 cB|ABGA F2A2|E2A2 D2A2|Bcde dcBA|
d2a2 fgaf|{ef}efge fgaf|gabg fdfa|{ga}gfe.d .dcBA|
B/c/dBd gdgd|AdAd fdfd|GBGB ef{ef}ed|c2Bc A3G|
{FG}FGAF {EF}EFGE|FGAF GABG|A2d2 f{ef}edc|d2 .d.d d2A/B/c:|
|:d2b2 agfe|d2a2 c2a2|B2gB ABcd|ecBA d3f|
edcB c~a3|B~g3 A~f3|edcB c~a3|B~g3 bgbg|
afaf edcB|cABG AFGE|DAF/G/A DAFA|GEBE GEBE|
FAdc BAG{FG}F|EFGA BcdB|{AB}A2d2 f{ef}edc|1 d2 .d.d d2A/B/c:|2 d8||

